img/svg/measuring-tape.svg

<svg width="44" height="43" viewBox="0 0 44 43" fill="none" xmlns="http://www.w3.org/2000/svg">
<g clip-path="url(#clip0)">
<path d="M42.6693 28.407H33.4559V19.2943C33.4581 17.6924 32.9629 16.1293 32.0385 14.8209V11.2773C32.0403 10.7129 31.8159 10.1712 31.4155 9.77338L30.12 8.47784C29.7222 8.07719 29.1806 7.85253 28.616 7.85419H25.2285C23.7878 6.48631 21.8763 5.72505 19.8897 5.72804H14.3205C6.88706 5.73618 0.863142 11.7602 0.854919 19.1937V27.6983C0.860816 32.7843 4.98232 36.9058 10.0682 36.9116H29.2036C31.2764 36.9078 33.045 35.4115 33.3922 33.368H41.9606V35.4941C41.9606 35.8856 42.2778 36.2028 42.6693 36.2028C43.0607 36.2028 43.378 35.8856 43.378 35.4941V29.1157C43.378 28.7243 43.0608 28.407 42.6693 28.407ZM28.6161 9.27157C28.8043 9.27141 28.9849 9.34616 29.1179 9.47921L30.4135 10.7747C30.5465 10.9078 30.6213 11.0884 30.6211 11.2766V13.2305L26.6622 9.27157H28.6161ZM32.0386 32.6636C32.0362 34.2276 30.7677 35.4942 29.2037 35.4942H10.0683C5.76484 35.4892 2.27745 32.0018 2.27238 27.6983V19.1937C2.27978 12.5427 7.66966 7.15289 14.3206 7.14542H19.8897C20.3654 7.147 20.8394 7.2014 21.3029 7.3077L19.7274 11.6401C19.6255 11.9201 19.3592 12.1065 19.0612 12.1064H16.4468C11.1874 12.0797 6.82086 16.1615 6.49355 21.4108C6.16616 26.66 9.99166 31.2527 15.2136 31.8797C15.6177 31.9276 16.0243 31.9513 16.4312 31.9505C18.9228 31.9549 21.3246 31.0202 23.1576 29.3325C23.2937 29.2007 23.4743 29.1248 23.6637 29.1199H32.0386V32.6636ZM32.0386 27.6983H23.6636C23.1172 27.7034 22.593 27.9148 22.1958 28.29C19.3938 30.8653 15.2222 31.2657 11.9815 29.2704C8.74088 27.275 7.22043 23.3696 8.25859 19.7083C9.29684 16.047 12.641 13.5211 16.4466 13.5239H19.061C19.9547 13.5221 20.7525 12.9634 21.0596 12.1242L22.6415 7.77479C23.2936 8.085 23.8882 8.50392 24.3998 9.01361L24.4501 9.06394L30.1701 14.784C31.3702 15.9776 32.043 17.6017 32.0383 19.2943V27.6983H32.0386ZM41.9606 31.9506H33.4559V29.8244H41.9606V31.9506Z" fill="white"/>
<path d="M16.4466 16.3589C13.3153 16.3589 10.7769 18.8973 10.7769 22.0287C10.7769 25.16 13.3153 27.6984 16.4466 27.6984C19.578 27.6984 22.1164 25.1599 22.1164 22.0286C22.1129 18.8987 19.5765 16.3624 16.4466 16.3589ZM16.4466 26.2809C14.0981 26.2809 12.1943 24.3771 12.1943 22.0286C12.1943 19.6801 14.0981 17.7763 16.4466 17.7763C18.7951 17.7763 20.6989 19.6801 20.6989 22.0286C20.6966 24.3762 18.7942 26.2786 16.4466 26.2809Z" fill="white"/>
</g>
<defs>
<clipPath id="clip0">
<rect width="42.5231" height="42.5231" fill="white" transform="translate(0.854919 0.0583496)"/>
</clipPath>
</defs>
</svg>

<svg width="44" height="43" viewBox="0 0 44 43" fill="none" xmlns="http://www.w3.org/2000/svg"><g clip-path="url(#a)" fill="#fff"><path d="M42.67 28.407h-9.214v-9.113a7.734 7.734 0 0 0-1.418-4.473v-3.544a2.11 2.11 0 0 0-.622-1.504L30.12 8.478a2.11 2.11 0 0 0-1.504-.624h-3.387a7.737 7.737 0 0 0-5.34-2.126H14.32C6.887 5.736.863 11.76.855 19.194v8.504a9.224 9.224 0 0 0 9.213 9.214h19.136a4.257 4.257 0 0 0 4.188-3.544h8.569v2.126a.709.709 0 1 0 1.417 0v-6.378a.709.709 0 0 0-.709-.709zM28.615 9.272a.71.71 0 0 1 .502.207l1.296 1.296a.71.71 0 0 1 .207.502v1.954l-3.959-3.96h1.954zm3.423 23.392a2.835 2.835 0 0 1-2.835 2.83H10.068a7.805 7.805 0 0 1-7.796-7.796v-8.504C2.28 12.543 7.67 7.153 14.321 7.145h5.569a6.4 6.4 0 0 1 1.413.163l-1.576 4.332a.709.709 0 0 1-.666.466h-2.614a9.922 9.922 0 1 0-.016 19.845 9.905 9.905 0 0 0 6.727-2.619.756.756 0 0 1 .506-.212h8.375v3.544zm0-4.966h-8.375a2.167 2.167 0 0 0-1.468.592 8.505 8.505 0 1 1-5.75-14.766h2.615a2.133 2.133 0 0 0 1.999-1.4l1.582-4.35c.652.311 1.246.73 1.758 1.24l.05.05 5.72 5.72a6.337 6.337 0 0 1 1.868 4.51v8.404zm9.922 4.253h-8.505v-2.127h8.505v2.127z"/><path d="M16.447 16.359a5.67 5.67 0 1 0 5.67 5.67 5.676 5.676 0 0 0-5.67-5.67zm0 9.922a4.252 4.252 0 1 1 0-8.505 4.252 4.252 0 0 1 0 8.505z"/></g><defs><clipPath id="a"><path fill="#fff" transform="translate(.855 .058)" d="M0 0h42.523v42.523H0z"/></clipPath></defs></svg>
